X: 17
T: Road To Lisdoonvarna, The
Z: Erik-Fiddler
S: https://thesession.org/tunes/249#setting50158
R: reel
M: 4/4
L: 1/8
K: Amaj
|:a3 a ge e/e/e|fd d/d/d ge e/e/e|a3 a ge e/e/e|1fded cAAe:|2fded cAA=G||
|:Aeed ef=ge|dB B/B/B =gBdB|Ae e/e/e ef=ge|1efed cAA=G:|2fded cAce||

%-------------------- TUNE SEPARATOR --------------------%

